%
(Header)
(Generated by gcodetools from Inkscape.)
(Using default header. To add your own header create file "header" in the output dir.)
M3
(Header end.)
G21 (All units in mm)

(Start cutting path id: path225)
(Change tool to Default tool)

G00 Z0.000000
G00 X71.579583 Y13.525590

G01 Z0.000000 F100.0(Penetrate)
G02 X61.502693 Y14.340941 Z0.000000 I7.868663 J159.926106 F400.000000
G02 X57.977604 Y15.059710 Z0.000000 I2.272485 J20.148549
G03 X57.149335 Y15.289933 Z0.000000 I-6.521563 J-21.857456
G03 X56.583969 Y15.418930 Z0.000000 I-2.590333 J-10.049444
G02 X56.053116 Y15.586720 Z0.000000 I0.496086 J2.493161
G02 X55.902012 Y15.720140 Z0.000000 I0.134540 J0.304649
G03 X55.754044 Y15.845817 Z0.000000 I-0.259498 J-0.155578
G03 X55.428018 Y15.908100 Z0.000000 I-0.326026 J-0.822172
G02 X55.080596 Y15.967127 Z0.000000 I-0.000000 J1.051934
G02 X54.213594 Y16.333030 Z0.000000 I2.477535 J7.080621
G03 X53.352366 Y16.723491 Z0.000000 I-5.780708 J-11.605317
G03 X53.177471 Y16.757960 Z0.000000 I-0.174895 J-0.426469
G02 X52.110083 Y17.032288 Z0.000000 I-0.000000 J2.213721
G02 X47.786469 Y19.725020 Z0.000000 I22.800277 J41.427011
G02 X45.184070 Y21.974286 Z0.000000 I9.702996 J13.856481
G02 X42.509020 Y25.319910 Z0.000000 I19.083769 J18.000999
G03 X41.649278 Y26.438788 Z0.000000 I-9.380237 J-6.317993
G03 X41.453836 Y26.528850 Z0.000000 I-0.198182 J-0.172977
G03 X40.815068 Y26.184481 Z0.000000 I-0.007371 J-0.750934
G03 X38.833419 Y22.458890 Z0.000000 I21.335581 J-13.738258
G02 X37.712799 Y21.060122 Z0.000000 I-3.088926 J1.326411
G02 X36.235292 Y20.582340 Z0.000000 I-1.477507 J2.045653
G02 X35.334819 Y20.791288 Z0.000000 I0.000000 J2.044793
G02 X34.550856 Y21.408550 Z0.000000 I1.049152 J2.138964
G02 X33.536118 Y23.351872 Z0.000000 I4.015539 J3.333372
G02 X33.563975 Y24.979840 Z0.000000 I2.774671 J0.766744
G02 X34.976449 Y27.276349 Z0.000000 I5.248852 J-1.645694
G02 X38.871389 Y30.144780 Z0.000000 I12.348966 J-12.689603
G03 X39.837209 Y31.138386 Z0.000000 I-1.112779 J2.047869
G03 X39.604002 Y31.589210 Z0.000000 I-0.278900 J0.141458
G03 X38.257594 Y31.260621 Z0.000000 I-0.268914 J-1.820889
G03 X33.605335 Y27.257960 Z0.000000 I21.128781 J-29.262776
G02 X31.605200 Y25.486641 Z0.000000 I-13.487552 J13.214943
G02 X30.891012 Y25.177340 Z0.000000 I-0.974851 J1.271771
G02 X29.745459 Y25.254561 Z0.000000 I-0.408387 J2.477301
G02 X28.952162 Y25.772990 Z0.000000 I0.501941 J1.634228
G02 X27.968909 Y28.127298 Z0.000000 I3.113595 J2.682838
G02 X28.509141 Y31.297540 Z0.000000 I6.509034 J0.521965
G02 X30.694182 Y34.372035 Z0.000000 I8.665098 J-3.844576
G02 X35.678336 Y38.011860 Z0.000000 I17.349391 J-18.524786
G03 X36.487813 Y38.824586 Z0.000000 I-1.016288 J1.821710
G03 X36.438957 Y39.388210 Z0.000000 I-0.444113 J0.245433
G03 X35.922467 Y39.635735 Z0.000000 I-0.517023 J-0.416210
G03 X34.054378 Y39.390210 Z0.000000 I-0.005778 J-7.185539
G03 X31.879392 Y38.420574 Z0.000000 I1.974502 J-7.353161
G03 X30.164687 Y36.861790 Z0.000000 I3.929420 J-6.044975
G03 X28.656712 Y34.557800 Z0.000000 I11.725524 J-9.319913
G03 X28.403602 Y33.540020 Z0.000000 I1.919747 J-1.017780
G02 X28.116904 Y31.954764 Z0.000000 I-4.526066 J-0.000000
G02 X26.924378 Y29.584210 Z0.000000 I-11.502641 J4.301261
G02 X25.674240 Y28.572961 Z0.000000 I-2.169932 J1.404185
G02 X24.487761 Y28.656350 Z0.000000 I-0.503281 J1.321647
G02 X23.521914 Y29.688771 Z0.000000 I1.103978 J2.000782
G02 X22.102155 Y33.755480 Z0.000000 I19.213317 J8.988891
G02 X21.865434 Y35.761260 Z0.000000 I8.435932 J2.012463
G02 X22.099155 Y37.646450 Z0.000000 I7.672132 J0.005912
G02 X24.568075 Y41.832420 Z0.000000 I8.367287 J-2.114016
G02 X30.155362 Y45.189070 Z0.000000 I10.610170 J-11.332616
G02 X33.769354 Y45.969569 Z0.000000 I5.133531 J-15.012814
G02 X36.100961 Y45.761130 Z0.000000 I0.609140 J-6.331088
G03 X36.509769 Y45.791095 Z0.000000 I0.163028 J0.579482
G03 X36.614437 Y45.990790 Z0.000000 I-0.074359 J0.166252
G03 X36.440873 Y46.315391 Z0.000000 I-0.599901 J-0.112064
G03 X35.718061 Y46.865960 Z0.000000 I-2.597703 J-2.660628
G03 X33.499017 Y47.434063 Z0.000000 I-2.105405 J-3.605927
G03 X29.949271 Y46.708910 Z0.000000 I0.284302 J-10.442579
G02 X29.535351 Y46.550983 Z0.000000 I-7.295017 J18.498579
G02 X28.815773 Y46.290930 Z0.000000 I-20.182360 J54.719810
G03 X27.683599 Y45.853559 Z0.000000 I7.130771 J-20.142687
G03 X26.136595 Y45.167470 Z0.000000 I16.059251 J-38.297801
G02 X23.187903 Y43.926649 Z0.000000 I-17.176390 J36.693981
G02 X21.464554 Y43.415190 Z0.000000 I-4.492407 J11.977944
G02 X18.967788 Y43.642671 Z0.000000 I-0.892136 J4.023809
G02 X17.527632 Y45.079250 Z0.000000 I1.056325 J2.499116
G02 X17.116075 Y47.128581 Z0.000000 I4.742129 J2.018329
G02 X17.553182 Y49.325380 Z0.000000 I5.917770 J-0.035598
G02 X18.858295 Y51.229493 Z0.000000 I5.031658 J-2.049457
G02 X21.915057 Y53.436800 Z0.000000 I9.941491 J-10.547139
G02 X27.105285 Y55.280197 Z0.000000 I8.544511 J-15.829289
G02 X31.249127 Y55.208410 Z0.000000 I1.899195 J-10.006278
G03 X32.216824 Y54.992382 Z0.000000 I42.336717 J187.371412
G03 X33.246726 Y54.767870 Z0.000000 I46.855962 J212.467925
G02 X35.532419 Y54.103325 Z0.000000 I-3.547556 J-16.464845
G02 X38.219276 Y52.932070 Z0.000000 I-8.844394 J-23.956476
G03 X39.064144 Y52.603483 Z0.000000 I2.100700 J4.150887
G03 X39.274153 Y52.636320 Z0.000000 I0.069057 J0.246321
G03 X39.445219 Y52.803555 Z0.000000 I-0.347605 J0.526680
G03 X40.699080 Y54.692390 Z0.000000 I-46.620681 J32.308673
G02 X42.390459 Y57.042089 Z0.000000 I21.127401 J-13.424494
G02 X44.904791 Y59.874410 Z0.000000 I33.260094 J-26.993750
G02 X46.758286 Y61.487285 Z0.000000 I10.448765 J-10.136145
G02 X48.548953 Y62.540390 Z0.000000 I6.144675 J-8.399261
G03 X49.587294 Y63.271227 Z0.000000 I-1.470322 J3.192004
G03 X49.490994 Y63.500610 Z0.000000 I-0.096300 J0.094477
G02 X48.922456 Y63.581224 Z0.000000 I0.000000 J2.045138
G02 X47.260887 Y64.146000 Z0.000000 I5.310786 J18.350871
G03 X46.847266 Y64.303779 Z0.000000 I-8.687709 J-22.154048
G03 X46.127389 Y64.566400 Z0.000000 I-25.106377 J-67.701620
G02 X44.351454 Y65.310803 Z0.000000 I6.207379 J17.299679
G02 X43.810514 Y65.683640 Z0.000000 I0.929326 J1.927176
G03 X42.920928 Y66.342320 Z0.000000 I-3.169827 J-3.350977
G03 X42.418768 Y66.475120 Z0.000000 I-0.502160 J-0.883016
G02 X42.057229 Y66.608331 Z0.000000 I0.000000 J0.557217
G02 X40.036041 Y68.506800 Z0.000000 I18.727069 J21.962769
G02 X38.289126 Y70.896416 Z0.000000 I7.769066 J7.512875
G02 X37.883763 Y72.504450 Z0.000000 I2.986774 J1.608034
G03 X37.821615 Y72.789904 Z0.000000 I-0.686640 J-0.000000
G03 X37.677672 Y72.955310 Z0.000000 I-0.351779 J-0.160797
G02 X37.548047 Y73.128550 Z0.000000 I0.164433 J0.258151
G02 X37.471581 Y73.668990 Z0.000000 I1.871612 J0.540440
G03 X37.397147 Y74.221179 Z0.000000 I-2.085419 J0.000000
G03 X37.248538 Y74.481290 Z0.000000 I-0.581340 J-0.159628
G02 X36.352993 Y76.698222 Z0.000000 I2.277795 J2.209478
G02 X37.265788 Y81.836950 Z0.000000 I15.121020 J-0.035521
G02 X37.871062 Y83.298464 Z0.000000 I17.135042 J-6.240242
G02 X38.340033 Y84.142530 Z0.000000 I6.158927 J-2.869644
G03 X38.646239 Y84.724898 Z0.000000 I-2.929412 J1.911956
G03 X38.708119 Y85.038290 Z0.000000 I-0.762655 J0.313392
G02 X39.096920 Y86.037454 Z0.000000 I1.478255 J0.000000
G02 X42.730843 Y89.424510 Z0.000000 I23.387828 J-21.449538
G02 X44.454122 Y90.245008 Z0.000000 I2.633405 J-3.310961
G02 X45.030381 Y89.931080 Z0.000000 I0.107586 J-0.488378
G02 X45.045342 Y89.628407 Z0.000000 I-0.469992 J-0.174937
G02 X44.897119 Y89.425360 Z0.000000 I-0.333531 J0.087852
G03 X41.794002 Y86.920896 Z0.000000 I9.606883 J-15.077924
G03 X40.104519 Y84.580710 Z0.000000 I6.658660 J-6.587128
G02 X39.587370 Y83.582462 Z0.000000 I-67.867989 J34.526383
G02 X39.178949 Y82.825910 Z0.000000 I-39.432161 J20.798746
G03 X38.758846 Y81.664893 Z0.000000 I3.445622 J-1.903280
G03 X38.366264 Y78.593420 Z0.000000 I24.313487 J-4.668466
G03 X38.496239 Y75.897387 Z0.000000 I11.972941 J-0.773939
G03 X39.315794 Y72.742850 Z0.000000 I17.268358 J2.802627
G03 X41.526542 Y68.832214 Z0.000000 I12.700802 J4.599774
G03 X44.315828 Y66.579730 Z0.000000 I6.681590 J5.420665
G02 X45.402603 Y66.020117 Z0.000000 I-45.488388 J-89.674054
G02 X46.127381 Y65.632940 Z0.000000 I-21.066221 J-40.306987
G03 X46.865643 Y65.279837 Z0.000000 I3.663612 J6.711502
G03 X47.673060 Y64.992900 Z0.000000 I3.207060 J7.744923
G02 X48.496198 Y64.742650 Z0.000000 I-25.561273 J-85.556484
G02 X49.218740 Y64.514850 Z0.000000 I-20.526511 J-66.366438
G03 X49.951270 Y64.348385 Z0.000000 I1.315764 J4.095044
G03 X51.176600 Y64.246900 Z0.000000 I1.562318 J11.415371
G02 X53.119805 Y63.757317 Z0.000000 I-0.135823 J-4.640276
G02 X53.122195 Y63.272360 Z0.000000 I-0.121758 J-0.243084
G02 X50.873632 Y62.179054 Z0.000000 I-26.375718 J51.387087
G02 X49.424830 Y61.572550 Z0.000000 I-9.520303 J20.708171
G03 X47.898907 Y60.684084 Z0.000000 I1.900503 J-5.018683
G03 X44.991982 Y57.895060 Z0.000000 I17.835203 J-21.498569
G03 X42.282165 Y54.534653 Z0.000000 I29.000389 J-26.158575
G03 X40.232750 Y51.275380 Z0.000000 I25.221915 J-18.133388
G02 X39.592617 Y50.822371 Z0.000000 I-0.782313 J0.426681
G02 X38.522794 Y50.999010 Z0.000000 I-0.271815 J1.681773
G02 X37.998624 Y51.298722 Z0.000000 I4.429893 J8.355715
G02 X37.883756 Y51.391990 Z0.000000 I0.297475 J0.483737
G03 X37.549027 Y51.631642 Z0.000000 I-0.786339 J-0.744715
G03 X35.101533 Y52.668450 Z0.000000 I-18.832591 J-41.049103
G03 X34.684724 Y52.815009 Z0.000000 I-2.433427 J-6.254597
G03 X33.761944 Y53.090380 Z0.000000 I-9.521595 J-30.223486
G02 X32.836137 Y53.357227 Z0.000000 I22.464594 J79.678781
G02 X32.237035 Y53.539530 Z0.000000 I9.888675 J33.572695
G03 X29.133518 Y53.995407 Z0.000000 I-2.977785 J-9.480158
G03 X25.312230 Y53.451830 Z0.000000 I0.190337 J-15.041457
G03 X23.004545 Y52.439750 Z0.000000 I2.351105 J-8.497816
G03 X20.301977 Y50.333680 Z0.000000 I8.613406 J-13.840003
G03 X19.213395 Y48.985920 Z0.000000 I4.857566 J-5.036945
G03 X18.743506 Y47.821770 Z0.000000 I3.122260 J-1.937152
G03 X19.187600 Y45.686906 Z0.000000 I2.631368 J-0.566245
G03 X20.907985 Y44.803630 Z0.000000 I1.720385 J1.233786
G03 X22.144294 Y44.895863 Z0.000000 I-0.000000 J8.331959
G03 X22.323922 Y45.016100 Z0.000000 I-0.037576 J0.250433
G02 X22.486574 Y45.166267 Z0.000000 I0.337370 J-0.202249
G02 X22.752465 Y45.228560 Z0.000000 I0.265891 J-0.536315
G03 X23.040757 Y45.285113 Z0.000000 I0.000000 J0.763096
G03 X24.749687 Y46.043480 Z0.000000 I-11.677686 J28.619553
G02 X27.672429 Y47.340371 Z0.000000 I22.860131 J-47.576933
G02 X29.485571 Y47.975420 Z0.000000 I7.197159 J-17.642865
G03 X30.257339 Y48.206582 Z0.000000 I-25.007638 J84.895549
G03 X30.995718 Y48.435250 Z0.000000 I-23.692334 J77.810050
G02 X31.745719 Y48.588535 Z0.000000 I1.113066 J-3.534598
G02 X33.623373 Y48.693930 Z0.000000 I2.191015 J-22.255576
G02 X35.468488 Y48.544771 Z0.000000 I0.137423 J-9.786767
G02 X36.433153 Y48.196170 Z0.000000 I-0.524626 J-2.960805
G02 X37.908209 Y46.908762 Z0.000000 I-2.448460 J-4.294072
G02 X38.295944 Y45.765340 Z0.000000 I-1.492097 J-1.143422
G02 X38.195180 Y45.345392 Z0.000000 I-0.925476 J-0.000000
G02 X37.832240 Y44.854700 Z0.000000 I-1.647128 J0.838726
G02 X37.294405 Y44.593198 Z0.000000 I-0.669430 J0.692990
G02 X34.792404 Y44.435600 Z0.000000 I-2.312481 J16.773073
G03 X32.125417 Y44.251703 Z0.000000 I-0.187337 J-16.714202
G03 X30.155365 Y43.740080 Z0.000000 I1.437872 J-9.585409
G03 X26.018104 Y41.340681 Z0.000000 I5.080959 J-13.527672
G03 X23.893582 Y38.553070 Z0.000000 I4.950604 J-5.976389
G03 X23.310737 Y35.870965 Z0.000000 I6.017216 J-2.711975
G03 X23.866092 Y32.479580 Z0.000000 I10.346795 J-0.046828
G03 X24.908062 Y30.170806 Z0.000000 I12.663350 J4.325571
G03 X25.320972 Y29.931070 Z0.000000 I0.412910 J0.235720
G03 X26.172253 Y30.492088 Z0.000000 I-0.000000 J0.926370
G03 X26.751762 Y33.264850 Z0.000000 I-6.571680 J2.820426
G02 X26.825743 Y33.691157 Z0.000000 I1.312535 J-0.008202
G02 X26.960957 Y33.861670 Z0.000000 I0.314063 J-0.110180
G03 X27.104900 Y34.027059 Z0.000000 I-0.207732 J0.326128
G03 X27.167047 Y34.312530 Z0.000000 I-0.624573 J0.285471
G02 X27.223181 Y34.619595 Z0.000000 I0.867921 J-0.000000
G02 X27.798410 Y35.981660 Z0.000000 I18.212352 J-6.888963
G02 X31.001843 Y39.638378 Z0.000000 I7.916157 J-3.703347
G02 X35.595992 Y40.974530 Z0.000000 I4.564748 J-7.128964
G02 X37.238564 Y40.592756 Z0.000000 I-0.013142 J-3.780992
G02 X38.065728 Y39.771550 Z0.000000 I-0.790985 J-1.623908
G02 X37.991317 Y38.451693 Z0.000000 I-1.198372 J-0.594464
G02 X35.975145 Y36.532280 Z0.000000 I-4.983957 J3.216591
G03 X30.481227 Y31.936207 Z0.000000 I10.428072 J-18.046815
G03 X29.231826 Y28.550040 Z0.000000 I4.042680 J-3.415217
G03 X29.571012 Y27.293341 Z0.000000 I2.447827 J-0.013449
G03 X30.381187 Y26.600650 Z0.000000 I1.414013 J0.833699
G03 X30.671141 Y26.645377 Z0.000000 I0.106785 J0.269952
G03 X32.698527 Y28.485280 Z0.000000 I-15.950095 J19.612319
G02 X37.345541 Y32.247724 Z0.000000 I19.272537 J-19.052615
G02 X39.640858 Y32.935640 Z0.000000 I2.348917 J-3.664190
G02 X41.059878 Y32.507643 Z0.000000 I0.030401 J-2.465582
G02 X41.652303 Y31.564860 Z0.000000 I-0.783731 J-1.150005
G02 X41.409830 Y29.981655 Z0.000000 I-2.667387 J-0.401651
G02 X40.649173 Y29.506140 Z0.000000 I-0.760657 J0.370635
G03 X40.428559 Y29.434440 Z0.000000 I0.000000 J-0.375255
G03 X40.356846 Y29.293670 Z0.000000 I0.102307 J-0.140770
G02 X40.276385 Y29.161674 Z0.000000 I-0.148500 J0.000000
G02 X39.944665 Y29.081210 Z0.000000 I-0.331720 J0.643539
G03 X39.598221 Y29.015418 Z0.000000 I-0.000000 J-0.945036
G03 X39.532484 Y28.918860 Z0.000000 I0.038046 J-0.096558
G02 X39.467656 Y28.798430 Z0.000000 I-0.144274 J-0.000000
G02 X38.759644 Y28.409010 Z0.000000 I-2.773767 J4.204698
G03 X38.019920 Y28.010988 Z0.000000 I2.425583 J-5.394356
G03 X37.471577 Y27.592980 Z0.000000 I2.132458 J-3.366016
G02 X36.952122 Y27.129302 Z0.000000 I-25.351958 J27.878792
G02 X36.537882 Y26.774920 Z0.000000 I-15.212304 J17.362497
G03 X35.330102 Y25.334042 Z0.000000 I3.416745 J-4.090636
G03 X34.998490 Y24.088270 Z0.000000 I2.174200 J-1.245772
G03 X35.476419 Y22.335319 Z0.000000 I3.453704 J0.000000
G03 X36.312643 Y21.857390 Z0.000000 I0.836224 J0.492597
G03 X36.861961 Y22.119748 Z0.000000 I0.000000 J0.706253
G03 X37.686151 Y23.557110 Z0.000000 I-4.069312 J3.288340
G02 X38.789766 Y25.793776 Z0.000000 I12.074778 J-4.567330
G02 X40.089417 Y27.432290 Z0.000000 I7.714190 J-4.784116
G02 X40.959581 Y28.076868 Z0.000000 I2.608587 J-2.611888
G02 X41.826927 Y28.359840 Z0.000000 I1.233955 J-2.311482
G01 X42.768996 Y28.492960 Z0.000000
G01 X43.001854 Y27.565410 Z0.000000
G03 X44.427274 Y24.690041 Z0.000000 I7.319479 J1.837521
G03 X48.394379 Y20.821390 Z0.000000 I17.570847 J14.049651
G03 X51.584774 Y18.687808 Z0.000000 I19.375444 J25.520421
G03 X52.432570 Y18.457950 Z0.000000 I0.847796 J1.448557
G02 X52.651684 Y18.404150 Z0.000000 I0.000000 J-0.473098
G02 X52.756631 Y18.288580 Z0.000000 I-0.104856 J-0.200653
G03 X53.450954 Y17.548321 Z0.000000 I1.306949 J0.530099
G03 X55.048860 Y17.183150 Z0.000000 I1.597906 J3.313459
G02 X55.301432 Y17.137150 Z0.000000 I-0.000000 J-0.716394
G02 X55.514810 Y17.007630 Z0.000000 I-0.238898 J-0.634099
G03 X55.732709 Y16.871448 Z0.000000 I0.500670 J0.558686
G03 X56.638004 Y16.550610 Z0.000000 I3.946209 J9.697209
G02 X57.561891 Y16.258257 Z0.000000 I-11.944850 J-39.353813
G02 X59.111091 Y15.735860 Z0.000000 I-36.644298 J-111.229238
G03 X60.671508 Y15.260949 Z0.000000 I7.235396 J20.972360
G03 X61.893314 Y14.999670 Z0.000000 I3.330454 J12.586682
G03 X69.164334 Y14.371379 Z0.000000 I7.735835 J47.137644
G03 X78.792744 Y14.835230 Z0.000000 I0.810900 J83.330671
G03 X84.837316 Y15.645996 Z0.000000 I-11.807497 J110.967143
G03 X87.757687 Y16.288100 Z0.000000 I-4.291313 J26.479593
G02 X88.900876 Y16.554312 Z0.000000 I3.636349 J-13.027830
G02 X90.230767 Y16.751910 Z0.000000 I3.271707 J-17.445418
G03 X91.645275 Y17.006137 Z0.000000 I-1.153139 J10.478261
G03 X92.806906 Y17.398880 Z0.000000 I-1.869167 J7.442777
G02 X93.226898 Y17.551567 Z0.000000 I1.536781 J-3.573212
G02 X93.837356 Y17.707820 Z0.000000 I2.226840 J-7.429325
G03 X95.664213 Y18.160743 Z0.000000 I-5.931222 J27.834233
G03 X96.825666 Y18.554510 Z0.000000 I-3.293895 J11.625449
G03 X98.594302 Y19.288526 Z0.000000 I-22.427665 J56.537974
G03 X99.195716 Y19.582160 Z0.000000 I-2.954871 J6.814822
G02 X99.608017 Y19.806711 Z0.000000 I203.050525 J-372.333246
G02 X100.419670 Y20.247880 Z0.000000 I779.513058 J-1433.162820
G03 X101.189430 Y20.745869 Z0.000000 I-2.858579 J5.262533
G03 X102.068390 Y21.503440 Z0.000000 I-5.811667 J7.631576
G02 X103.412076 Y22.446078 Z0.000000 I3.590351 J-3.688875
G02 X103.934770 Y22.408790 Z0.000000 I0.229000 J-0.472084
G02 X104.359849 Y22.011620 Z0.000000 I-1.038846 J-1.537904
G02 X104.451030 Y21.746260 Z0.000000 I-0.340541 J-0.265360
G03 X104.522638 Y21.504052 Z0.000000 I0.445428 J-0.000000
G03 X104.654330 Y21.432460 Z0.000000 I0.131692 J0.085327
G02 X105.267748 Y21.030963 Z0.000000 I0.000000 J-0.669347
G02 X106.509790 Y17.183150 Z0.000000 I-18.657808 J-8.146953
G03 X107.209791 Y15.246669 Z0.000000 I7.527194 J1.626180
G03 X107.707510 Y14.887920 Z0.000000 I0.606138 J0.316303
G03 X108.996511 Y15.295451 Z0.000000 I0.238874 J1.486742
G03 X109.603290 Y16.732510 Z0.000000 I-1.398331 J1.437059
G03 X108.958275 Y18.702234 Z0.000000 I-3.330047 J-0.000000
G03 X105.353060 Y22.526210 Z0.000000 I-17.263405 J-12.664335
G02 X104.373057 Y24.168352 Z0.000000 I1.824143 J2.202113
G02 X104.750320 Y25.544510 Z0.000000 I1.561280 J0.311778
G02 X105.664112 Y25.957428 Z0.000000 I0.926587 J-0.832973
G02 X107.427530 Y25.572010 Z0.000000 I0.041460 J-4.037139
G02 X109.381649 Y24.152504 Z0.000000 I-2.761812 J-5.856754
G02 X112.376540 Y20.312160 Z0.000000 I-19.173134 J-18.040117
G03 X114.385535 Y18.269315 Z0.000000 I5.860108 J3.753731
G03 X115.280620 Y18.382760 Z0.000000 I0.381881 J0.574795
G03 X115.619207 Y19.008894 Z0.000000 I-1.129590 J1.015448
G03 X115.786000 Y20.288650 Z0.000000 I-4.826199 J1.279756
G03 X115.012797 Y23.133991 Z0.000000 I-5.621944 J0.000000
G03 X111.227170 Y28.057330 Z0.000000 I-21.511317 J-12.623283
G02 X109.444189 Y30.620128 Z0.000000 I6.464109 J6.398812
G02 X109.517120 Y31.733780 Z0.000000 I1.053880 J0.490197
G02 X110.473294 Y32.492345 Z0.000000 I1.571204 J-0.998596
G02 X111.922520 Y32.575710 Z0.000000 I0.869992 J-2.485596
G02 X114.978083 Y31.319342 Z0.000000 I-2.168664 J-9.618167
G02 X117.252970 Y29.245400 Z0.000000 I-4.535758 J-7.259849
G02 X118.442924 Y26.956999 Z0.000000 I-6.020255 J-4.584078
G02 X119.290920 Y22.844680 Z0.000000 I-19.107873 J-6.083804
G03 X119.822065 Y19.979672 Z0.000000 I17.110421 J1.690368
G03 X120.145970 Y19.732760 Z0.000000 I0.323905 J0.088997
G03 X120.839154 Y20.082168 Z0.000000 I0.000000 J0.862302
G03 X122.594250 Y23.041630 Z0.000000 I-13.618968 J10.076825
G03 X123.041494 Y24.397583 Z0.000000 I-5.647960 J2.614645
G03 X123.205270 Y26.000480 Z0.000000 I-7.762011 J1.602897
G03 X123.038890 Y27.602816 Z0.000000 I-7.798913 J0.000000
G03 X122.575780 Y28.999210 Z0.000000 I-6.367411 J-1.336742
G03 X120.450979 Y31.911809 Z0.000000 I-8.370085 J-3.874807
G03 X116.507320 Y34.582960 Z0.000000 I-10.900759 J-11.847001
G02 X115.479522 Y35.082028 Z0.000000 I47.819913 J99.789888
G02 X115.119010 Y35.265970 Z0.000000 I6.121256 J12.442436
G03 X114.744061 Y35.386351 Z0.000000 I-0.526515 J-0.995811
G03 X113.725650 Y35.455180 Z0.000000 I-1.018411 J-7.499970
G02 X111.558641 Y35.888232 Z0.000000 I0.000000 J5.638420
G02 X110.625540 Y36.745760 Z0.000000 I0.712674 J1.711912
G02 X110.669330 Y37.715953 Z0.000000 I0.861459 J0.447203
G02 X112.086110 Y39.029280 Z0.000000 I3.235391 J-2.069395
G02 X113.039902 Y39.347274 Z0.000000 I1.394967 J-2.594670
G02 X114.488320 Y39.393140 Z0.000000 I0.916553 J-6.051143
G02 X116.789259 Y38.897935 Z0.000000 I-0.820534 J-9.405752
G02 X119.495630 Y37.639010 Z0.000000 I-5.020170 J-14.330564
G02 X121.719981 Y36.292714 Z0.000000 I-63.371061 J-107.212360
G02 X122.071770 Y36.042820 Z0.000000 I-1.807072 J-2.916479
G03 X126.625073 Y32.914204 Z0.000000 I22.149319 J27.357835
G03 X128.243470 Y32.480670 Z0.000000 I1.618397 J2.803997
G03 X129.237220 Y32.901597 Z0.000000 I0.000000 J1.383516
G03 X130.010890 Y34.305300 Z0.000000 I-2.191869 J2.123140
G03 X130.073793 Y35.368326 Z0.000000 I-2.907767 J0.705438
G03 X129.734860 Y36.598440 Z0.000000 I-4.265033 J-0.513395
G03 X127.185114 Y40.065177 Z0.000000 I-9.165861 J-4.070363
G03 X123.102220 Y42.420620 Z0.000000 I-7.937509 J-9.042437
G03 X120.728708 Y42.979802 Z0.000000 I-4.128947 J-12.208872
G03 X117.434730 Y43.199830 Z0.000000 I-3.217579 J-23.402873
G03 X112.375347 Y42.794544 Z0.000000 I0.106791 J-33.115131
G03 X110.692510 Y42.135020 Z0.000000 I0.655226 J-4.148588
G02 X110.212884 Y41.905328 Z0.000000 I-1.033046 J1.541525
G02 X109.713580 Y41.829140 Z0.000000 I-0.499304 J1.598019
G02 X109.352583 Y41.990620 Z0.000000 I0.000000 J0.484252
G02 X109.191100 Y42.413500 Z0.000000 I0.472960 J0.422880
G03 X109.082551 Y43.523528 Z0.000000 I-5.729880 J0.000000
G03 X108.362510 Y46.609610 Z0.000000 I-45.382460 J-8.961542
G02 X108.144876 Y47.462242 Z0.000000 I31.300328 J8.443495
G02 X107.975810 Y48.215180 Z0.000000 I24.259351 J5.842681
G03 X107.772984 Y48.955442 Z0.000000 I-6.062265 J-1.263093
G03 X107.474290 Y49.681960 Z0.000000 I-6.134133 J-2.097274
G02 X107.166512 Y50.401363 Z0.000000 I7.588033 J3.671879
G02 X107.130200 Y50.602150 Z0.000000 I0.536964 J0.200787
G03 X106.703635 Y52.015506 Z0.000000 I-2.554751 J0.000000
G03 X103.987690 Y55.334040 Z0.000000 I-17.955810 J-11.924690
G03 X100.409233 Y58.389263 Z0.000000 I-21.184271 J-21.189005
G03 X99.195716 Y58.813920 Z0.000000 I-1.314502 J-1.810145
G02 X97.735060 Y59.102049 Z0.000000 I0.225001 J4.987052
G02 X96.672726 Y59.718910 Z0.000000 I1.148069 J3.200346
G02 X96.476194 Y59.969589 Z0.000000 I0.525959 J0.614733
G02 X96.413486 Y60.233390 Z0.000000 I0.523532 J0.263801
G02 X96.763810 Y60.606506 Z0.000000 I0.373857 J0.000000
G02 X98.013486 Y60.334320 Z0.000000 I0.146968 J-2.330123
G03 X98.383100 Y60.171828 Z0.000000 I1.228121 J2.291941
G03 X99.298756 Y59.884750 Z0.000000 I4.851019 J13.868852
G02 X100.221389 Y59.612233 Z0.000000 I-8.025885 J-28.870544
G02 X100.758910 Y59.427860 Z0.000000 I-3.122643 J-9.979466
G03 X102.947238 Y59.073000 Z0.000000 I1.983800 J5.308722
G03 X107.233250 Y59.661670 Z0.000000 I-0.778890 J21.568204
G03 X109.644117 Y60.355394 Z0.000000 I-6.802520 J28.176547
G03 X110.566030 Y60.778970 Z0.000000 I-1.506723 J4.494439
G03 X114.905181 Y64.515788 Z0.000000 I-8.519271 J14.280177
G03 X117.240060 Y68.918450 Z0.000000 I-9.738365 J7.985045
G02 X117.499234 Y69.766079 Z0.000000 I51.171990 J-15.183115
G02 X117.680890 Y70.318550 Z0.000000 I21.959925 J-6.914446
G03 X117.790798 Y70.882161 Z0.000000 I-1.977854 J0.678217
G03 X117.890830 Y74.142920 Z0.000000 I-67.389175 J3.699248
G03 X117.730566 Y77.388727 Z0.000000 I-29.122313 J0.188923
G03 X117.370400 Y79.073310 Z0.000000 I-8.136422 J-0.858782
G03 X116.791297 Y80.714077 Z0.000000 I-35.641120 J-11.656833
G03 X116.484020 Y81.410420 Z0.000000 I-6.707773 J-2.543986
G02 X115.850056 Y82.804515 Z0.000000 I16.334282 J8.269198
G02 X115.786000 Y83.133190 Z0.000000 I0.811193 J0.328675
G03 X114.788247 Y85.885052 Z0.000000 I-4.293776 J-0.000000
G03 X113.295020 Y86.116730 Z0.000000 I-0.878368 J-0.733352
G03 X113.197547 Y85.977007 Z0.000000 I0.119069 J-0.186925
G03 X113.007370 Y84.796880 Z0.000000 I10.652493 J-2.322031
G02 X112.547802 Y82.824494 Z0.000000 I-8.143033 J0.857601
G02 X111.858570 Y81.677870 Z0.000000 I-3.352845 J1.234926
G02 X108.773922 Y79.994885 Z0.000000 I-3.907755 J3.493971
G02 X105.027630 Y80.591800 Z0.000000 I-0.959322 J6.033690
G02 X103.335631 Y81.810351 Z0.000000 I3.172823 J6.189547
G02 X102.164050 Y83.394220 Z0.000000 I4.342837 J4.437619
G02 X101.616522 Y85.513238 Z0.000000 I4.361799 J2.257282
G02 X102.043550 Y87.672800 Z0.000000 I4.966762 J0.139881
G03 X101.794372 Y88.080768 Z0.000000 I-0.265311 J0.118034
G03 X99.729926 Y87.801540 Z0.000000 I-0.306375 J-5.506103
G03 X94.880246 Y85.656908 Z0.000000 I9.211176 J-27.384965
G03 X92.163236 Y83.586290 Z0.000000 I5.835323 J-10.474860
G03 X90.830629 Y81.756695 Z0.000000 I5.504837 J-5.409619
G03 X89.767397 Y79.010550 Z0.000000 I11.573951 J-6.060017
G03 X89.032470 Y74.547495 Z0.000000 I23.493012 J-6.160610
G03 X89.239157 Y71.471500 Z0.000000 I11.255617 J-0.788636
G03 X89.419037 Y70.618855 Z0.000000 I115.268664 J23.872572
G03 X89.617207 Y69.712150 Z0.000000 I127.527246 J27.397446
G02 X89.786893 Y68.802641 Z0.000000 I-13.182155 J-2.929956
G02 X89.818587 Y68.381360 Z0.000000 I-2.783975 J-0.421281
G03 X89.865001 Y67.967314 Z0.000000 I1.869981 J0.000000
G03 X89.998767 Y67.587660 Z0.000000 I1.703288 J0.386736
G03 X90.180007 Y67.219256 Z0.000000 I64.165945 J31.338254
G03 X90.617046 Y66.339940 Z0.000000 I368.750917 J182.728972
G02 X90.218630 Y65.577033 Z0.000000 I-0.475620 J-0.237102
G02 X88.582047 Y66.041140 Z0.000000 I-0.301598 J2.054071
G03 X86.398668 Y67.469480 Z0.000000 I-7.058100 J-8.406165
G03 X84.872417 Y67.879910 Z0.000000 I-1.788738 J-3.608689
G03 X82.955291 Y67.356467 Z0.000000 I-0.198839 J-3.044233
G03 X82.811507 Y66.475100 Z0.000000 I0.346968 J-0.509015
G02 X83.077665 Y65.897637 Z0.000000 I-1.175339 J-0.891792
G02 X83.219107 Y64.605840 Z0.000000 I-6.020750 J-1.312870
G02 X83.035058 Y63.350916 Z0.000000 I-4.272920 J-0.014286
G02 X82.656937 Y62.753490 Z0.000000 I-1.269725 J0.385258
G02 X81.434956 Y62.257198 Z0.000000 I-1.288486 J1.419997
G02 X80.112624 Y62.665190 Z0.000000 I-0.073213 J2.109594
G02 X79.711965 Y63.204808 Z0.000000 I0.675342 J0.919982
G02 X79.514061 Y64.358450 Z0.000000 I3.263504 J1.153642
G02 X79.639505 Y65.580353 Z0.000000 I6.013772 J0.000000
G02 X79.934327 Y66.383700 Z0.000000 I2.857875 J-0.593045
G03 X79.733961 Y67.188769 Z0.000000 I-0.538577 J0.293427
G03 X77.867584 Y67.749880 Z0.000000 I-1.866377 J-2.823434
G03 X75.889237 Y67.604438 Z0.000000 I-0.000000 J-13.527735
G03 X74.801459 Y67.296620 Z0.000000 I0.642593 J-4.346748
G03 X73.854014 Y66.568492 Z0.000000 I0.949246 J-2.215639
G03 X73.921345 Y66.174410 Z0.000000 I0.212322 J-0.166517
G02 X74.047623 Y66.023203 Z0.000000 I-0.174677 J-0.274211
G02 X74.359590 Y65.102190 Z0.000000 I-7.334070 J-2.997549
G02 X74.488127 Y64.150976 Z0.000000 I-3.549134 J-0.963883
G02 X74.365090 Y63.508680 Z0.000000 I-1.707324 J-0.005882
G02 X72.647371 Y61.948739 Z0.000000 I-2.467544 J0.991421
G02 X70.971829 Y62.511420 Z0.000000 I-0.435089 J1.480440
G02 X70.511152 Y63.243434 Z0.000000 I4.623452 J3.420635
G02 X70.446112 Y63.505550 Z0.000000 I0.495655 J0.262116
G02 X70.542633 Y64.147655 Z0.000000 I2.184063 J-0.000000
G02 X71.219881 Y66.021160 Z0.000000 I19.651042 J-6.044440
G03 X71.021672 Y66.836888 Z0.000000 I-0.654168 J0.272993
G03 X69.502298 Y67.464120 Z0.000000 I-1.748203 J-2.080913
G03 X67.175816 Y67.243427 Z0.000000 I-0.552939 J-6.543964
G03 X64.848094 Y66.158710 Z0.000000 I2.141683 J-7.635811
G02 X63.097279 Y65.548468 Z0.000000 I-2.007218 J2.942104
G02 X62.614669 Y65.997500 Z0.000000 I-0.032411 J0.449032
G02 X62.713307 Y66.332258 Z0.000000 I0.617370 J-0.000000
G02 X63.490554 Y67.354750 Z0.000000 I7.026024 J-4.534173
G03 X64.991251 Y69.187588 Z0.000000 I-21.724711 J19.318618
G03 X65.087756 Y69.476220 Z0.000000 I-0.383374 J0.288632
G02 X65.129834 Y69.700382 Z0.000000 I0.618122 J-0.000000
G02 X65.479541 Y70.483000 Z0.000000 I8.135599 J-3.165886
G03 X66.424500 Y72.916083 Z0.000000 I-11.790241 J5.979125
G03 X66.877847 Y75.504860 Z0.000000 I-12.911671 J3.595179
G02 X66.958450 Y76.567141 Z0.000000 I935.644345 J-70.460015
G02 X67.075702 Y78.092860 Z0.000000 I1908.767969 J-145.921922
G03 X66.879102 Y82.120334 Z0.000000 I-16.011537 J1.236937
G03 X65.639139 Y86.234360 Z0.000000 I-17.958265 J-3.168727
G03 X63.981962 Y88.603219 Z0.000000 I-6.683386 J-2.911398
G03 X61.661721 Y90.020410 Z0.000000 I-4.445383 J-4.670074
G02 X60.866000 Y90.307390 Z0.000000 I13.589927 J38.927990
G02 X60.450718 Y90.471250 Z0.000000 I4.008771 J10.767881
G03 X58.746686 Y90.460540 Z0.000000 I-0.839404 J-2.011945
G03 X58.080676 Y89.447280 Z0.000000 I0.437776 J-1.013260
G02 X56.650491 Y85.358685 Z0.000000 I-6.559304 J0.000000
G02 X53.147623 Y83.258800 Z0.000000 I-4.559815 J3.634783
G02 X51.668201 Y83.210567 Z0.000000 I-0.899633 J4.881099
G02 X49.190766 Y83.724200 Z0.000000 I1.694023 J14.402479
G02 X47.803006 Y84.460709 Z0.000000 I1.159429 J3.860338
G02 X46.874318 Y85.613040 Z0.000000 I2.260345 J2.772049
G02 X46.556331 Y86.245036 Z0.000000 I83.217772 J42.266792
G02 X45.974324 Y87.418780 Z0.000000 I286.532800 J142.809911
G02 X45.876373 Y87.872130 Z0.000000 I0.855762 J0.422152
G02 X46.022974 Y88.906040 Z0.000000 I4.834489 J-0.158146
G02 X46.854727 Y90.775728 Z0.000000 I5.876115 J-1.494208
G02 X47.500091 Y91.121060 Z0.000000 I0.645364 J-0.430369
G02 X47.913008 Y90.779912 Z0.000000 I0.000000 J-0.420466
G02 X47.776146 Y89.683970 Z0.000000 I-1.755723 J-0.337261
G03 X47.466872 Y88.266338 Z0.000000 I2.964412 J-1.389276
G03 X47.801496 Y86.757390 Z0.000000 I3.714614 J0.032175
G03 X49.819098 Y84.670995 Z0.000000 I3.949982 J1.801006
G03 X52.674710 Y84.334970 Z0.000000 I1.896526 J3.815271
G03 X54.437750 Y85.064320 Z0.000000 I-1.305879 J5.652219
G03 X55.645094 Y86.186710 Z0.000000 I-2.290925 J3.674886
G03 X56.642665 Y88.560859 Z0.000000 I-4.513081 J3.292964
G03 X56.461134 Y91.080960 Z0.000000 I-5.304687 J0.884474
G02 X56.706431 Y91.914574 Z0.000000 I0.738194 J0.235678
G02 X57.801034 Y92.185480 Z0.000000 I0.830028 J-1.006913
G02 X61.238324 Y91.207277 Z0.000000 I-4.960914 J-23.960271
G02 X63.712667 Y90.025240 Z0.000000 I-4.944794 J-13.531655
G02 X66.369729 Y88.001105 Z0.000000 I-7.833095 J-13.038444
G02 X66.736486 Y87.145320 Z0.000000 I-0.815060 J-0.855785
G03 X66.805059 Y86.940327 Z0.000000 I0.340692 J0.000000
G03 X66.942577 Y86.871750 Z0.000000 I0.137518 J0.103595
G02 X67.075808 Y86.798891 Z0.000000 I-0.000000 J-0.158242
G02 X67.148667 Y86.550170 Z0.000000 I-0.388100 J-0.248721
G03 X67.188870 Y86.237908 Z0.000000 I1.232806 J0.000000
G03 X67.329458 Y85.859660 Z0.000000 I1.959483 J0.513056
G02 X67.831080 Y84.513451 Z0.000000 I-6.528248 J-3.199103
G02 X67.973030 Y83.417940 Z0.000000 I-4.156362 J-1.095511
G03 X68.025090 Y82.871921 Z0.000000 I2.889424 J0.000000
G03 X68.194998 Y82.264460 Z0.000000 I3.752935 J0.722211
G02 X68.789201 Y78.847662 Z0.000000 I-8.924958 J-3.312173
G02 X68.103188 Y73.911370 Z0.000000 I-19.657519 J0.216056
G03 X67.790515 Y72.741608 Z0.000000 I145.996634 J-39.651023
G03 X67.656135 Y72.211650 Z0.000000 I29.856179 J-7.852565
G02 X67.509166 Y71.685985 Z0.000000 I-7.999959 J1.953300
G02 X67.337556 Y71.202440 Z0.000000 I-6.939380 J2.190564
G02 X67.148603 Y70.724424 Z0.000000 I-1835.024131 J724.995122
G02 X66.917471 Y70.140120 Z0.000000 I-2571.622616 J1017.054988
G02 X66.673227 Y69.561689 Z0.000000 I-12.828005 J5.075876
G02 X66.398972 Y68.986180 Z0.000000 I-12.976989 J5.830998
G03 X66.463844 Y68.459943 Z0.000000 I0.425606 J-0.214650
G03 X66.924769 Y68.377450 Z0.000000 I0.281336 J0.243006
G02 X68.051968 Y68.647534 Z0.000000 I1.053432 J-1.909283
G02 X70.446117 Y68.258270 Z0.000000 I-0.323042 J-9.544039
G03 X72.579967 Y67.906747 Z0.000000 I2.462714 J8.297104
G03 X73.523596 Y68.141240 Z0.000000 I0.066481 J1.748360
G02 X74.522041 Y68.443021 Z0.000000 I1.138974 J-1.965733
G02 X80.750647 Y68.589130 Z0.000000 I5.013731 J-80.899264
G03 X81.469031 Y68.620758 Z0.000000 I0.092019 J6.084282
G03 X83.168797 Y68.839280 Z0.000000 I-3.565619 J34.455082
G02 X84.846686 Y68.978671 Z0.000000 I1.837008 J-11.944251
G02 X85.332747 Y68.867780 Z0.000000 I0.013952 J-1.059547
G03 X85.811455 Y68.665311 Z0.000000 I1.880308 J3.778560
G03 X86.778797 Y68.358680 Z0.000000 I5.340918 J15.170051
G02 X87.685712 Y68.027566 Z0.000000 I-1.760112 J-6.228473
G02 X87.757727 Y67.915960 Z0.000000 I-0.050473 J-0.111606
G03 X87.819536 Y67.811741 Z0.000000 I0.118769 J0.000000
G03 X88.061707 Y67.749880 Z0.000000 I0.242171 J0.443093
G03 X88.210529 Y67.905870 Z0.000000 I0.000000 J0.148987
G03 X87.948737 Y70.150570 Z0.000000 I-16.352283 J-0.769500
G02 X87.631144 Y74.863759 Z0.000000 I19.737010 J3.697250
G02 X88.424477 Y79.541700 Z0.000000 I20.232153 J-1.024933
G02 X89.586173 Y82.415587 Z0.000000 I15.081585 J-4.424611
G02 X90.911536 Y84.285090 Z0.000000 I7.607916 J-3.988994
G02 X95.269944 Y87.740535 Z0.000000 I13.614136 J-12.695341
G02 X98.391046 Y88.571470 Z0.000000 I3.121102 J-5.446168
G03 X98.688075 Y88.624055 Z0.000000 I-0.000000 J0.865183
G03 X99.553556 Y88.996400 Z0.000000 I-2.897889 J7.927908
G02 X100.439534 Y89.281120 Z0.000000 I1.377480 J-2.765548
G02 X102.171260 Y89.418200 Z0.000000 I1.712630 J-10.628607
G02 X104.401805 Y88.836539 Z0.000000 I-0.007599 J-4.596800
G02 X104.385620 Y88.184050 Z0.000000 I-0.179487 J-0.321993
G03 X103.084135 Y86.525481 Z0.000000 I1.081357 J-2.188469
G03 X103.445560 Y83.956820 Z0.000000 I3.607281 J-0.802193
G03 X104.313447 Y82.658154 Z0.000000 I7.570690 J4.120093
G03 X105.290960 Y81.674120 Z0.000000 I5.285653 J4.273090
G03 X106.262473 Y81.093106 Z0.000000 I2.440663 J2.978288
G03 X107.106340 Y80.924790 Z0.000000 I0.848956 J2.056761
G03 X109.054040 Y81.267312 Z0.000000 I0.012301 J5.638972
G03 X110.460740 Y82.150740 Z0.000000 I-1.364741 J3.734775
G03 X111.298285 Y83.561379 Z0.000000 I-2.192380 J2.255651
G03 X111.658820 Y86.446640 Z0.000000 I-9.518257 J2.654533
G02 X111.841616 Y88.344441 Z0.000000 I8.002007 J0.186952
G02 X112.123690 Y88.571470 Z0.000000 I0.282074 J-0.061718
G02 X113.288578 Y88.180276 Z0.000000 I0.000000 J-1.929984
G02 X115.167550 Y86.267240 Z0.000000 I-5.547136 J-7.327638
G03 X115.920359 Y85.309111 Z0.000000 I13.688715 J9.980526
G03 X116.221430 Y85.020920 Z0.000000 I1.513713 J1.280002
G02 X116.764137 Y84.351914 Z0.000000 I-1.150675 J-1.488071
G02 X118.460580 Y80.391560 Z0.000000 I-42.355964 J-20.486973
G03 X118.621611 Y79.967241 Z0.000000 I57.054776 J21.409883
G03 X118.851750 Y79.372360 Z0.000000 I110.544395 J42.423798
G02 X119.026136 Y78.767281 Z0.000000 I-3.219411 J-1.255517
G02 X119.083500 Y78.163220 Z0.000000 I-3.151815 J-0.604061
G03 X119.161054 Y77.590943 Z0.000000 I2.150225 J0.000000
G03 X119.289590 Y77.417050 Z0.000000 I0.290352 J0.080168
G02 X120.198082 Y75.655900 Z0.000000 I-1.058133 J-1.660739
G02 X118.877370 Y69.343370 Z0.000000 I-20.829320 J1.063501
G03 X118.731953 Y68.913555 Z0.000000 I5.999438 J-2.269267
G03 X118.474800 Y67.998770 Z0.000000 I27.056586 J-8.099343
G02 X116.871349 Y64.708569 Z0.000000 I-9.076096 J2.387343
G02 X113.098900 Y60.923130 Z0.000000 I-15.931620 J12.104478
G02 X111.160230 Y59.656933 Z0.000000 I-9.440729 J12.337424
G02 X110.027760 Y59.229470 Z0.000000 I-2.050147 J3.717568
G03 X109.297386 Y59.054602 Z0.000000 I4.724985 J-21.347618
G03 X108.469840 Y58.828110 Z0.000000 I7.148322 J-27.743297
G02 X105.514027 Y58.120683 Z0.000000 I-8.963668 J30.923723
G02 X103.987370 Y57.976730 Z0.000000 I-1.529367 J8.052065
G03 X103.306388 Y57.884588 Z0.000000 I0.000785 J-2.568301
G03 X103.214530 Y57.764020 Z0.000000 I0.033196 J-0.120568
G03 X103.273469 Y57.610503 Z0.000000 I0.229399 J0.000000
G03 X103.405900 Y57.551550 Z0.000000 I0.132431 J0.119267
G02 X103.569916 Y57.487059 Z0.000000 I-0.000000 J-0.240811
G02 X105.312230 Y55.778230 Z0.000000 I-31.446209 J-33.805052
G02 X106.891865 Y53.910782 Z0.000000 I-13.214398 J-12.779592
G02 X107.780500 Y52.431900 Z0.000000 I-7.361145 J-5.429613
G02 X108.960115 Y49.618678 Z0.000000 I-27.760312 J-13.294125
G02 X109.812170 Y46.822060 Z0.000000 I-26.581715 J-9.626852
G03 X110.455113 Y44.274825 Z0.000000 I394.602229 J98.246041
G03 X110.529210 Y44.019500 Z0.000000 I4.028286 J1.030625
G03 X110.688398 Y43.907253 Z0.000000 I0.154624 J0.050284
G03 X111.704600 Y44.052500 Z0.000000 I-0.126748 J4.514271
G02 X117.685972 Y44.783074 Z0.000000 I5.693272 J-21.761372
G02 X122.896180 Y43.909160 Z0.000000 I-0.221451 J-17.288651
G02 X125.693308 Y42.789278 Z0.000000 I-7.730506 J-23.361610
G02 X126.056240 Y42.413400 Z0.000000 I-0.316573 J-0.668824
G03 X126.157961 Y42.303686 Z0.000000 I0.205819 J0.088812
G03 X126.365370 Y42.251390 Z0.000000 I0.212460 J0.405182
G02 X127.565740 Y41.746061 Z0.000000 I-0.019344 J-1.724308
G02 X130.650670 Y37.963290 Z0.000000 I-17.127308 J-17.116981
G02 X131.241504 Y36.691009 Z0.000000 I-3.959284 J-2.611978
G02 X131.448940 Y35.252040 Z0.000000 I-4.887284 J-1.438969
G02 X130.953122 Y32.644790 Z0.000000 I-7.103005 J-0.000000
G02 X129.921010 Y31.379990 Z0.000000 I-2.499919 J0.986489
G02 X129.245824 Y31.121737 Z0.000000 I-0.936204 J1.435902
G02 X127.973190 Y31.079880 Z0.000000 I-0.809898 J5.256705
G02 X126.690734 Y31.264907 Z0.000000 I1.003520 J11.492535
G02 X126.427510 Y31.392340 Z0.000000 I0.116483 J0.576181
G03 X126.179874 Y31.570412 Z0.000000 I-1.250271 J-1.477468
G03 X124.957090 Y32.282880 Z0.000000 I-21.598185 J-35.662664
G02 X123.737592 Y32.995981 Z0.000000 I18.622540 J33.246331
G02 X123.617500 Y33.099900 Z0.000000 I0.250734 J0.411106
G03 X123.159695 Y33.540271 Z0.000000 I-2.170148 J-1.797912
G03 X120.593840 Y35.413080 Z0.000000 I-42.824460 J-55.977866
G03 X118.203846 Y36.851539 Z0.000000 I-12.046374 J-17.310285
G03 X116.012910 Y37.772440 Z0.000000 I-7.009098 J-13.608804
G03 X113.779894 Y38.102503 Z0.000000 I-2.058418 J-6.207381
G03 X112.606690 Y37.681540 Z0.000000 I0.053247 J-1.993709
G03 X112.623297 Y37.342189 Z0.000000 I0.127780 J-0.163828
G03 X113.818670 Y36.913900 Z0.000000 I1.552791 J2.451589
G02 X115.124486 Y36.691827 Z0.000000 I-1.814097 J-14.617328
G02 X115.516080 Y36.546030 Z0.000000 I-0.310557 J-1.432907
G03 X115.892614 Y36.349354 Z0.000000 I5.648209 J10.354630
G03 X117.496050 Y35.556800 Z0.000000 I93.361086 J186.863051
G02 X122.344616 Y31.879407 Z0.000000 I-6.929101 J-14.170940
G02 X124.659150 Y27.517140 Z0.000000 I-7.755936 J-6.910305
G02 X124.492591 Y23.919178 Z0.000000 I-6.023250 J-1.524004
G02 X121.702310 Y19.167250 Z0.000000 I-13.708989 J4.854595
G02 X120.547489 Y18.454823 Z0.000000 I-1.743511 J1.533996
G02 X119.414560 Y18.567740 Z0.000000 I-0.414459 J1.581566
G02 X118.400743 Y19.678204 Z0.000000 I0.900016 J1.839708
G02 X117.845390 Y22.685890 Z0.000000 I7.918343 J3.017193
G03 X117.094158 Y26.559852 Z0.000000 I-10.427520 J-0.012267
G03 X115.153430 Y29.388040 Z0.000000 I-7.308770 J-2.935377
G03 X113.055087 Y30.833536 Z0.000000 I-5.941596 J-6.379303
G03 X111.452280 Y31.205910 Z0.000000 I-1.602807 J-3.263288
G03 X111.122253 Y30.761530 Z0.000000 I0.000000 J-0.344741
G03 X112.036480 Y29.270910 Z0.000000 I3.293636 J0.994386
G02 X115.817906 Y24.700307 Z0.000000 I-17.736474 J-18.523586
G02 X117.217950 Y21.280210 Z0.000000 I-8.351280 J-5.415272
G02 X117.299515 Y19.975730 Z0.000000 I-4.608911 J-0.942971
G02 X117.025580 Y18.784270 Z0.000000 I-4.103707 J0.316285
G02 X115.728616 Y16.820926 Z0.000000 I-5.283164 J2.079949
G02 X114.539540 Y16.333340 Z0.000000 I-1.189076 J1.206107
G02 X113.289262 Y16.781627 Z0.000000 I-0.000000 J1.967665
G02 X111.699410 Y18.670460 Z0.000000 I4.319744 J5.249491
G03 X111.137615 Y19.614439 Z0.000000 I-24.177099 J-13.749475
G03 X110.906220 Y19.945250 Z0.000000 I-3.187644 J-1.983353
G02 X110.661947 Y20.267849 Z0.000000 I9.952604 J7.789933
G02 X109.702730 Y21.588660 Z0.000000 I165.835883 J121.444235
G03 X106.807778 Y24.524928 Z0.000000 I-10.894699 J-7.846158
G03 X105.850080 Y24.447030 Z0.000000 I-0.434394 J-0.585496
G03 X105.814014 Y24.223622 Z0.000000 I0.141748 J-0.137498
G03 X106.248010 Y23.623350 Z0.000000 I1.905424 J0.920594
G02 X109.889375 Y19.925105 Z0.000000 I-74.239850 J-76.739817
G02 X110.015520 Y19.606200 Z0.000000 I-0.340035 J-0.318905
G03 X110.076641 Y19.368991 Z0.000000 I0.490861 J-0.000000
G03 X110.180210 Y19.307860 Z0.000000 I0.103569 J0.057168
G02 X110.553166 Y19.021150 Z0.000000 I0.000000 J-0.385928
G02 X110.839880 Y16.828180 Z0.000000 I-8.243258 J-2.192970
G02 X110.684084 Y15.808963 Z0.000000 I-3.411766 J-0.000000
G02 X110.236710 Y14.901290 Z0.000000 I-3.136424 J0.981795
G02 X107.462673 Y13.851977 Z0.000000 I-2.159434 J1.517354
G02 X105.281620 Y16.087810 Z0.000000 I0.681653 J2.846676
G03 X104.327688 Y19.300691 Z0.000000 I-20.926151 J-4.465101
G03 X103.710780 Y20.173950 Z0.000000 I-2.032654 J-0.781419
G03 X103.360768 Y20.271437 Z0.000000 I-0.279601 J-0.326789
G03 X102.625000 Y19.993760 Z0.000000 I0.329868 J-1.987687
G02 X101.861313 Y19.550735 Z0.000000 I-7.384834 J11.850263
G02 X100.329260 Y18.757270 Z0.000000 I-25.291539 J46.958052
G03 X98.785557 Y17.984342 Z0.000000 I152.389281 J-306.282352
G03 X98.425716 Y17.798170 Z0.000000 I8.501252 J-16.872358
G02 X98.056210 Y17.654852 Z0.000000 I-0.788436 J1.484767
G02 X97.687226 Y17.608140 Z0.000000 I-0.368984 J1.433981
G03 X97.327452 Y17.558902 Z0.000000 I-0.000000 J-1.339022
G03 X97.165346 Y17.462520 Z0.000000 I0.096956 J-0.347587
G02 X96.419118 Y16.991394 Z0.000000 I-1.346375 J1.306009
G02 X95.073946 Y16.756250 Z0.000000 I-1.436940 J4.255012
G03 X94.671068 Y16.697324 Z0.000000 I0.036535 J-1.656494
G03 X93.425216 Y16.302110 Z0.000000 I4.471611 J-16.257358
G02 X92.173313 Y15.913264 Z0.000000 I-4.962125 J13.766025
G02 X90.642996 Y15.572850 Z0.000000 I-5.305931 J20.242668
G03 X89.100321 Y15.274985 Z0.000000 I15.208520 J-82.910425
G03 X88.169907 Y15.071400 Z0.000000 I6.161133 J-30.385113
G02 X85.277842 Y14.480155 Z0.000000 I-11.587835 J49.312877
G02 X80.029330 Y13.652890 Z0.000000 I-28.179328 J161.718241
G02 X77.168810 Y13.430503 Z0.000000 I-3.205302 J22.720804
G02 X71.579615 Y13.525900 Z0.000000 I-1.308845 J87.095964
G01 X71.579583 Y13.525590 Z0.000000
G00 Z0.000000

(End cutting path id: path225)


(Start cutting path id: path225)
(Change tool to Default tool)


(End cutting path id: path225)


(Footer)
M5
M2
(Using default footer. To add your own footer create file "footer" in the output dir.)
(end)
%
